X:157
T:First Day in Town 
C:Kenny Baker
N:Transcribed by Vance Henry
R:bluegrass
L:1/8
Q:1/4=260
M:4/4
K:Bb
DB, |: "Gm"G,B, DF GB Ac | BG AF G4 | "F"FG FC A,C D=E | FG AF GF DB, | "Gm"G,B, DF GB Ac | 
BG AF G4 | BG AG "D7"_G=G A_G |1 "Gm"GF DB, G,2 DB, :|2 "Gm"GF DB, G,2 dc |: BG Bd g2 ga | 
bg ab g4 | "F"ga fc Ac fg | af ga f4 | "Gm"cd BG DG Bc | dg bg ag z2 | ga bg "D7"_g=g a_g | 
|1 "Gm"g_g =ga g2 dc :|2 "Gm"g_g =ga g4 |: G2 BG A2 G2 | BG AF G4 | "F"FG AF GA FG | 
AF GA F4 | "Gm"G2 BG A2 G2 | BG AF G4 | GA BG "D7"_G=G A_G | "Gm"G_G =GA G2 z2 :| 


